images/MLDS.svg

<?xml version="1.0" encoding="UTF-8" standalone="no"?>
<svg
   xmlns:dc="http://purl.org/dc/elements/1.1/"
   xmlns:cc="http://creativecommons.org/ns#"
   xmlns:rdf="http://www.w3.org/1999/02/22-rdf-syntax-ns#"
   xmlns:svg="http://www.w3.org/2000/svg"
   xmlns="http://www.w3.org/2000/svg"
   xmlns:sodipodi="http://sodipodi.sourceforge.net/DTD/sodipodi-0.dtd"
   xmlns:inkscape="http://www.inkscape.org/namespaces/inkscape"
   height="496pt"
   viewBox="0 0 496 496"
   width="496pt"
   id="svg2"
   version="1.1"
   inkscape:version="0.91 r13725"
   sodipodi:docname="1283923.svg">
  <metadata
     id="metadata14">
    <rdf:RDF>
      <cc:Work
         rdf:about="">
        <dc:format>image/svg+xml</dc:format>
        <dc:type
           rdf:resource="http://purl.org/dc/dcmitype/StillImage" />
      </cc:Work>
    </rdf:RDF>
  </metadata>
  <defs
     id="defs12" />
  <sodipodi:namedview
     pagecolor="#ffffff"
     bordercolor="#666666"
     borderopacity="1"
     objecttolerance="10"
     gridtolerance="10"
     guidetolerance="10"
     inkscape:pageopacity="0"
     inkscape:pageshadow="2"
     inkscape:window-width="1215"
     inkscape:window-height="1000"
     id="namedview10"
     showgrid="false"
     inkscape:zoom="0.76129032"
     inkscape:cx="327.66889"
     inkscape:cy="358.6596"
     inkscape:window-x="65"
     inkscape:window-y="24"
     inkscape:window-maximized="1"
     inkscape:current-layer="svg2" />
  <path
     d="m313.695312 218.175781-33.703124-8.433593v-3.832032c14.910156-10.40625 24.007812-27.597656 24.007812-45.910156v-13.984375c0-31.078125-24.351562-57.085937-54.28125-57.992187-15.335938-.488282-29.75 5.144531-40.710938 15.785156-10.96875 10.640625-17.007812 24.910156-17.007812 40.191406v16c0 18.3125 9.089844 35.496094 24 45.902344v3.839844l-33.695312 8.433593c-17.839844 4.457031-30.304688 20.417969-30.304688 38.808594v14.128906l22.320312-4.960937c6.433594-1.433594 13.007813-2.152344 19.589844-2.152344 9.335938 0 18.617188 1.449219 27.503906 4.289062l36.625 11.710938c3.953126 0 7.890626.550781 11.6875 1.640625l50.273438 14.359375h8l16-8.425781v-30.589844c0-18.390625-12.464844-34.351563-30.304688-38.808594zm0 0"
     fill="#f0bc5e"
     id="path6"
     style="stroke:#000000;stroke-opacity:1;stroke-width:14.4;stroke-miterlimit:4;stroke-dasharray:none" />
  <path
     d="m496 208h-17.976562l-26.792969 14.097656c-3.015625-1.664062-6.152344-3.074218-9.535157-3.921875l-33.703124-8.433593v-3.832032c14.910156-10.40625 24.007812-27.597656 24.007812-45.910156v-13.984375c0-31.078125-24.351562-57.085937-54.28125-57.992187-15.3125-.449219-29.75 5.144531-40.710938 15.785156-10.96875 10.640625-17.007812 24.910156-17.007812 40.191406v16c0 18.3125 9.089844 35.496094 24 45.902344v3.839844l-32 8.011718 1.695312.421875c7.410157 1.847657 13.808594 5.761719 18.847657 10.929688l27.457031-6.859375v-25.335938l-3.992188-2.308594c-12.34375-7.136718-20.007812-20.402343-20.007812-34.601562v-16c0-10.910156 4.3125-21.113281 12.152344-28.710938 7.832031-7.59375 18.222656-11.6875 29.085937-11.265624 21.371094.640624 38.761719 19.480468 38.761719 41.992187v13.984375c0 14.199219-7.671875 27.464844-20.023438 34.617188l-4 2.3125.03125 25.316406 39.96875 9.984375-105.953124 55.769531h-4.902344l-49.183594-14.054688c-3.867188-1.097656-7.859375-1.546874-11.867188-1.699218l-36.214843-11.574219c-16.503907-5.289063-34.367188-6.078125-51.261719-2.335937l-45.539062 10.121093.648437-2.265625.296875-14.785156-42.191406-24.613281 18.191406-4.546875v-25.335938l-3.992188-2.308594c-12.34375-7.136718-20.007812-20.402343-20.007812-34.601562v-16c0-10.910156 4.3125-21.113281 12.152344-28.710938 7.832031-7.59375 18.246094-11.6875 29.085937-11.265624 21.371094.640624 38.761719 19.480468 38.761719 41.992187v13.984375c0 14.199219-7.671875 27.464844-20.023438 34.617188l-4 2.3125.03125 25.316406 27.449219 6.859375c5.046875-5.167969 11.4375-9.082031 18.847657-10.929688l1.695312-.421875-32.007812-8.011718v-3.832032c14.910156-10.40625 24.007812-27.597656 24.007812-45.910156v-13.984375c0-31.078125-24.351562-57.085937-54.28125-57.992187-15.320312-.449219-29.75 5.144531-40.710938 15.785156-10.96875 10.640625-17.007812 24.910156-17.007812 40.191406v16c0 18.3125 9.089844 35.496094 24 45.902344v3.839844l-21.984375 5.496093-39.847656-23.238281h-26.167969v165.769531l78.703125 26.230469h15.328125l1.914062-6.703125 24.125 14.480469c.394532 13.117187 10.914063 23.671875 24.019532 24.132812.460937 13.050782 10.949218 23.539063 24 24 .460937 13.050782 10.949218 23.539063 24 24 .476562 13.355469 11.414062 24.089844 24.878906 24.089844 5 0 9.902344-1.558594 14.023438-4.335938l7.085937 6.257813c4.441406 3.910156 10.160156 6.078125 16.097656 6.078125h1.480469c13.3125 0 24.144531-10.761719 24.3125-24.03125 13.167969-.167969 23.832031-10.832031 24-24 13.175781-.167969 23.847656-10.847656 24-24.023438 13.296875-.3125 24.03125-11.175781 24.03125-24.546874 0-.804688-.039062-1.597657-.121094-2.398438l144.121094-72.054688zm-480 0h5.832031l57.535157 33.558594-29.03125 116.121094-34.335938-11.449219zm65.296875 160-15.746094-5.246094 28.203125-112.800781 18.246094 10.640625v2.285156l-30.03125 105.121094zm54.703125 23.03125c0-2.359375.953125-4.671875 2.625-6.34375l14.0625-14.0625c1.671875-1.671875 3.984375-2.625 6.34375-2.625 4.945312 0 8.96875 4.023438 8.96875 8.96875 0 2.359375-.953125 4.671875-2.625 6.34375l-14.0625 14.0625c-1.671875 1.671875-3.984375 2.625-6.34375 2.625-4.945312 0-8.96875-4.023438-8.96875-8.96875zm24 24c0-2.359375.953125-4.671875 2.625-6.34375l14.0625-14.0625c1.671875-1.671875 3.984375-2.625 6.34375-2.625 4.945312 0 8.96875 4.023438 8.96875 8.96875 0 2.359375-.953125 4.671875-2.625 6.34375l-14.0625 14.0625c-1.671875 1.671875-3.984375 2.625-6.34375 2.625-4.945312 0-8.96875-4.023438-8.96875-8.96875zm24 24c0-2.359375.953125-4.671875 2.625-6.34375l14.0625-14.0625c1.671875-1.671875 3.984375-2.625 6.34375-2.625 4.945312 0 8.96875 4.023438 8.96875 8.96875 0 2.359375-.953125 4.671875-2.625 6.34375l-14.0625 14.0625c-1.671875 1.671875-3.984375 2.625-6.34375 2.625-4.945312 0-8.96875-4.023438-8.96875-8.96875zm32.96875 32.96875c-4.945312 0-8.96875-4.023438-8.96875-8.96875 0-2.359375.953125-4.671875 2.625-6.34375l14.0625-14.0625c1.671875-1.671875 3.984375-2.625 6.34375-2.625 4.945312 0 8.96875 4.023438 8.96875 8.96875 0 2.359375-.953125 4.671875-2.625 6.34375l-14.0625 14.0625c-1.671875 1.671875-3.984375 2.625-6.34375 2.625zm38.6875 8h-1.480469c-2.039062 0-3.992187-.742188-5.511719-2.089844l-5.984374-5.277344 6.007812-6.007812c2.144531-2.144531 3.808594-4.695312 5.039062-7.433594l7.273438 6.054688c1.902344 1.585937 3 3.921875 3 6.410156 0 4.601562-3.742188 8.34375-8.34375 8.34375zm71.742188-72h-1.382813c-2.007813 0-3.96875-.710938-5.503906-2l-43.382813-36.152344-10.25 12.296875 42.128906 35.101563c1.894532 1.585937 2.992188 3.921875 2.992188 6.410156 0 4.601562-3.742188 8.34375-8.34375 8.34375h-1.746094c-1.941406 0-3.839844-.6875-5.335937-1.9375l-43.453125-36.207031-10.25 12.296875 42.128906 35.105468c1.902344 1.574219 3 3.910157 3 6.398438 0 4.601562-3.742188 8.34375-8.34375 8.34375-3.070312 0-6.0625-1.089844-8.417969-3.046875l-17.855469-14.882813c-3.933593-8.039062-12.015624-13.644531-21.480468-13.980468-.460938-13.050782-10.949219-23.539063-24-24-.460938-13.050782-10.949219-23.539063-24-24-.46875-13.355469-11.40625-24.089844-24.871094-24.089844-6.574219 0-13.007812 2.664062-17.65625 7.3125l-14.0625 14.0625c-.839844.839844-1.535156 1.792969-2.242188 2.738281l-24.574218-14.746093 21.542968-75.398438 54.007813-12.007812c14.167969-3.167969 29.105469-2.480469 42.921875 1.941406l11.785156 3.769531-39.953125 19.976563c-9.128906 4.574218-14.800781 13.757812-14.800781 23.96875v1.582031c0 14.777343 12.023438 26.800781 26.800781 26.800781 4.855469 0 9.632813-1.320312 13.785157-3.824219l29.789062-17.863281c5.984375-3.585938 14.015625-2.800781 19.183594 1.847656l67.59375 60.832032c1.808594 1.640624 2.847656 3.96875 2.847656 6.40625 0 4.746093-3.855469 8.601562-8.601562 8.601562zm152.601562-92.945312-134.777344 67.394531c-.4375-.464844-.894531-.90625-1.375-1.335938l-67.582031-60.832031c-5.921875-5.34375-13.578125-8.28125-21.554687-8.28125-5.832032 0-11.558594 1.585938-16.574219 4.59375l-29.800781 17.871094c-1.671876 1.007812-3.582032 1.535156-5.535157 1.535156-5.960937 0-10.800781-4.839844-10.800781-10.800781v-1.582031c0-4.121094 2.289062-7.816407 5.96875-9.65625l44.625-22.3125c7.636719-3.824219 16.703125-4.679688 24.933594-2.3125l50.273437 14.359374 12.175781.304688 150.023438-78.960938zm0 0"
     id="path8" />
</svg>

<?xml version="1.0" encoding="UTF-8" standalone="no"?>
<svg
   xmlns:dc="http://purl.org/dc/elements/1.1/"
   xmlns:cc="http://creativecommons.org/ns#"
   xmlns:rdf="http://www.w3.org/1999/02/22-rdf-syntax-ns#"
   xmlns:svg="http://www.w3.org/2000/svg"
   xmlns="http://www.w3.org/2000/svg"
   xmlns:sodipodi="http://sodipodi.sourceforge.net/DTD/sodipodi-0.dtd"
   xmlns:inkscape="http://www.inkscape.org/namespaces/inkscape"
   height="496pt"
   viewBox="0 0 496 496"
   width="496pt"
   id="svg2"
   version="1.1"
   inkscape:version="1.0 (4035a4f, 2020-05-01)"
   sodipodi:docname="MLDS.svg">
  <metadata
     id="metadata14">
    <rdf:RDF>
      <cc:Work
         rdf:about="">
        <dc:format>image/svg+xml</dc:format>
        <dc:type
           rdf:resource="http://purl.org/dc/dcmitype/StillImage" />
      </cc:Work>
    </rdf:RDF>
  </metadata>
  <defs
     id="defs12" />
  <sodipodi:namedview
     pagecolor="#ffffff"
     bordercolor="#666666"
     borderopacity="1"
     objecttolerance="10"
     gridtolerance="10"
     guidetolerance="10"
     inkscape:pageopacity="0"
     inkscape:pageshadow="2"
     inkscape:window-width="1215"
     inkscape:window-height="1000"
     id="namedview10"
     showgrid="false"
     inkscape:zoom="2.1532542"
     inkscape:cx="322.01602"
     inkscape:cy="312.51369"
     inkscape:window-x="65"
     inkscape:window-y="24"
     inkscape:window-maximized="1"
     inkscape:current-layer="svg2"
     inkscape:document-rotation="0" />
  <path
     id="path8-35"
     d="m 136,391.03121 c 0,-2.35938 0.95312,-4.67188 2.625,-6.34375 l 14.0625,-14.0625 c 1.67187,-1.67188 3.98437,-2.625 6.34375,-2.625 4.94531,0 8.96875,4.02344 8.96875,8.96875 0,2.35937 -0.95313,4.67187 -2.625,6.34375 L 151.3125,397.375 C 149.64062,399.0468 147.32812,400 144.96875,400 140.02344,400 136,395.9765 136,391.03121 Z m 24,23.99999 c 0,-2.3594 0.95312,-4.6719 2.625,-6.3437 l 14.0625,-14.0625 c 1.67187,-1.6719 3.98437,-2.625 6.34375,-2.625 4.94531,0 8.96875,4.0234 8.96875,8.9687 0,2.3594 -0.95313,4.6719 -2.625,6.3438 L 175.3125,421.375 C 173.64062,423.0468 171.32812,424 168.96875,424 164.02344,424 160,419.9765 160,415.0312 Z m 24,24 c 0,-2.3594 0.95312,-4.6719 2.625,-6.3437 l 14.0625,-14.0625 c 1.67187,-1.6719 3.98437,-2.625 6.34375,-2.625 4.94531,0 8.96875,4.0234 8.96875,8.9687 0,2.3594 -0.95313,4.6719 -2.625,6.3438 L 199.3125,445.375 C 197.64062,447.0468 195.32812,448 192.96875,448 188.02344,448 184,443.9765 184,439.0312 Z M 216.96875,472 C 212.02344,472 208,467.9765 208,463.0312 c 0,-2.3594 0.95312,-4.6719 2.625,-6.3437 l 14.0625,-14.0625 c 1.67187,-1.6719 3.98437,-2.625 6.34375,-2.625 4.94531,0 8.96875,4.0234 8.96875,8.9687 0,2.3594 -0.95313,4.6719 -2.625,6.3438 l -14.0625,14.0625 c -1.67188,1.6718 -3.98438,2.625 -6.34375,2.625 z m 14.93359,-47.9102 v 0"
     style="fill:#c68642;fill-opacity:1;stroke-width:0.999998"
     sodipodi:nodetypes="sssssscssscsssscssscsssscsssscsssscscc" />
  <path
     id="path8-5"
     d="m 255.65625,480 h -1.48047 c -2.03906,0 -3.99219,-0.74219 -5.51172,-2.08984 l -5.98437,-5.27735 6.00782,-6.00781 c 2.14452,-2.14453 3.80858,-4.69531 5.03905,-7.43359 L 261,465.24609 c 1.90234,1.58594 3,3.92188 3,6.41016 0,4.60156 -3.74219,8.34375 -8.34375,8.34375 z m 71.74219,-72 h -1.38282 c -2.00781,0 -3.96875,-0.71094 -5.5039,-2 l -43.38281,-36.15234 -10.25,12.29687 42.1289,35.10156 C 310.90234,418.83203 312,421.16797 312,423.65625 312,428.25781 308.25781,432 303.65625,432 h -1.74609 c -1.94141,0 -3.83985,-0.6875 -5.33594,-1.9375 l -43.45313,-36.20703 -10.25,12.29687 L 285,441.25781 c 1.90234,1.57422 3,3.91016 3,6.39844 0,4.60156 -3.74219,8.34375 -8.34375,8.34375 -3.07031,0 -6.0625,-1.08984 -8.41797,-3.04688 l -17.85547,-14.88281 c -3.93359,-8.03906 -12.01562,-13.64453 -21.48047,-13.98047 -0.46093,-13.05078 -10.94921,-23.53906 -24,-24 -0.46093,-13.05078 -10.94921,-23.53906 -24,-24 C 183.43359,362.73437 172.49609,352 159.03125,352 c -6.57422,0 -13.00781,2.66406 -17.65625,7.3125 l -14.0625,14.0625 c -0.83984,0.83984 -1.53516,1.79297 -2.24219,2.73828 l -24.57422,-14.74609 21.54297,-75.39844 54.00782,-12.00781 c 14.16796,-3.16797 29.10546,-2.48047 42.92187,1.9414 l 11.78516,3.76953 -39.95313,19.97657 C 181.67188,304.22266 176,313.40625 176,323.61719 v 1.58203 C 176,339.97656 188.02344,352 202.80078,352 c 4.85547,0 9.63281,-1.32031 13.78516,-3.82422 L 246.375,330.3125 c 5.98438,-3.58594 14.01562,-2.80078 19.18359,1.84766 l 67.59375,60.83203 C 334.96095,394.63281 336,396.96094 336,399.39844 336,404.14453 332.14453,408 327.39844,408 Z"
     style="fill:#c39772;fill-opacity:1;stroke-width:0.999998"
     sodipodi:nodetypes="scccssccsccssssccccsssccccsscccccssscccccccssscc" />
  <path
     id="path8-7"
     d="m 479.99998,315.05469 -134.77733,67.39453 c -0.43749,-0.46485 -0.89453,-0.90625 -1.37499,-1.33594 L 276.26561,320.28125 C 270.34374,314.9375 262.68749,312 254.71093,312 c -5.83203,0 -11.5586,1.58594 -16.57422,4.59375 l -29.80078,17.87109 C 206.66405,335.47266 204.7539,336 202.80077,336 c -5.96094,0 -10.80078,-4.83984 -10.80078,-10.80078 v -1.58203 c 0,-4.1211 2.28906,-7.81641 5.96875,-9.65625 l 44.625,-22.3125 c 7.63672,-3.82422 16.70312,-4.67969 24.93359,-2.3125 L 317.80077,303.69531 329.97656,304 479.99998,225.03906 Z"
     style="mix-blend-mode:lighten;fill:#c68642;fill-opacity:1;stroke-width:0.999998"
     sodipodi:nodetypes="ccccsscsssscccccc" />
  <path
     id="path8-3"
     d="M 332.54298,229.10547 360,222.24609 v -25.33593 l -3.99219,-2.3086 C 343.66407,187.46484 336,174.19922 336,160 v -16 c 0,-10.91016 4.3125,-21.11328 12.15234,-28.71094 7.83203,-7.59375 18.22266,-11.6875 29.08594,-11.26562 C 398.60937,104.66406 416,123.50391 416,146.01562 V 160 c 0,14.19922 -7.67188,27.46484 -20.02344,34.61719 l -4,2.3125 0.0312,25.3164 39.9688,9.98438 -80.95654,42.82375"
     style="fill:#66cedb;fill-opacity:1;stroke-width:0.999998"
     sodipodi:nodetypes="ccccssccssccccc" />
  <path
     id="path8-6"
     d="m 16.000007,208 h 5.83203 l 57.535151,33.55859 -29.03124,116.1211 -34.335941,-11.44922 z"
     style="fill:#5d5360;fill-opacity:1;stroke-width:0.999998"
     sodipodi:nodetypes="cccccc" />
  <path
     sodipodi:nodetypes="ccccssccssccccc"
     style="fill:#66cedb;fill-opacity:1;stroke-width:0.999998"
     d="m 163.43358,229.08595 -27.45702,-6.85938 v -25.33594 l 3.99219,-2.30859 c 12.34374,-7.13673 20.00781,-20.40234 20.00781,-34.60157 v -15.99999 c 0,-10.91016 -4.31251,-21.11329 -12.15234,-28.71095 -7.83203,-7.59375 -18.22266,-11.6875 -29.08594,-11.26562 -21.3711,0.64062 -38.76172,19.48047 -38.76172,41.99219 v 13.98437 c 0,14.19923 7.67188,27.46484 20.02343,34.6172 L 104,196.91016 103.9688,222.22657 64,232.21095 l 77.12513,44.21699"
     id="path8-3-6" />
  <path
     d="m 313.69531,218.17578 -33.70312,-8.43359 v -3.83203 C 294.90234,195.50391 304,178.3125 304,160 v -13.98438 c 0,-31.07812 -24.35156,-57.085932 -54.28125,-57.992182 -15.33594,-0.488282 -29.75,5.144531 -40.71094,15.785152 C 198.03906,114.44922 192,128.71875 192,144 v 16 c 0,18.3125 9.08984,35.49609 24,45.90234 l 3.16708,2.70821 c 14.64236,6.75342 29.68018,13.4755 58.85501,-0.60489 l 1.57194,-0.0162 c -20.58816,9.56981 -40.76731,10.55026 -60.42695,0.62105 L 216,209.74215 182.30469,218.17574 C 164.46484,222.63281 152,238.59375 152,256.98437 v 14.12891 l 22.32031,-4.96094 C 180.75391,264.71875 187.32813,264 193.91016,264 c 9.33593,0 18.61718,1.44922 27.5039,4.28906 L 258.03906,280 c 3.95313,0 7.89063,0.55078 11.6875,1.64062 L 320,296 h 8 l 16,-8.42578 v -30.58985 c 0,-18.39062 -12.46484,-34.35156 -30.30469,-38.80859 z"
     fill="#f0bc5e"
     id="path6"
     style="stroke:#000000;stroke-width:14.4;stroke-miterlimit:4;stroke-dasharray:none;stroke-opacity:1"
     sodipodi:nodetypes="cccssccsscccccccsccsccccccsc" />
  <path
     d="m 496,208 h -17.97656 l -26.79297,14.09766 c -3.01563,-1.66407 -6.15235,-3.07422 -9.53516,-3.92188 l -33.70312,-8.43359 v -3.83203 C 422.90234,195.50391 432,178.3125 432,160 v -13.98438 c 0,-31.07812 -24.35156,-57.085932 -54.28125,-57.992182 -15.3125,-0.449219 -29.75,5.144531 -40.71094,15.785152 C 326.03906,114.44922 320,128.71875 320,144 v 16 c 0,18.3125 9.08984,35.49609 24,45.90234 v 3.83985 l -32,8.01172 1.69531,0.42187 c 7.41016,1.84766 13.8086,5.76172 18.84766,10.92969 l 26.76336,-6.68609 15.96628,-2.54092 0.053,-16.26333 -16.19508,-7.20775 -3.12275,-1.80582 C 343.66406,187.46484 336,174.19922 336,160 v -16 c 0,-10.91016 4.3125,-21.11328 12.15234,-28.71094 7.83203,-7.59375 18.22266,-11.6875 29.08594,-11.26562 C 398.60938,104.66406 416,123.50391 416,146.01562 V 160 c 0,14.19922 -7.67188,27.46484 -20.02344,34.61719 l -2.44663,1.41446 -18.20429,7.58348 -0.053,16.26333 17.37488,2.52744 39.32902,9.82457 L 326.02344,288 h -4.90235 L 271.9375,273.94531 c -3.86719,-1.09765 -7.85938,-1.54687 -11.86719,-1.69922 l -36.21484,-11.57422 c -16.50391,-5.28906 -34.36719,-6.07812 -51.26172,-2.33593 l -45.53906,10.12109 0.64844,-2.26562 L 128,251.40625 85.808594,226.79297 l 18.160206,-4.5664 15.42151,-2.14867 0.52355,-16.47207 -19.90605,-9.00427 C 87.664062,187.46484 80,174.19922 80,160 v -16 c 0,-10.91016 4.3125,-21.11328 12.152344,-28.71094 7.832031,-7.59375 18.246096,-11.6875 29.085936,-11.26562 C 142.60937,104.66406 160,123.50391 160,146.01562 V 160 c 0,14.19922 -7.67188,27.46484 -20.02344,34.61719 l -20.0627,8.98864 -0.52355,16.47207 17.13093,2.29649 26.93579,6.73108 c 5.04688,-5.16797 11.4375,-9.08203 18.84766,-10.92969 L 184,217.75391 151.99219,209.74219 v -3.83203 C 166.90234,195.50391 176,178.3125 176,160 V 146.01562 C 176,114.9375 151.64844,88.929688 121.71875,88.023438 106.39844,87.574219 91.96875,93.167969 81.007812,103.80859 70.039062,114.44922 64,128.71875 64,144 v 16 c 0,18.3125 9.089844,35.49609 24,45.90234 v 3.83985 L 66.015625,215.23828 26.167969,192 H 0 V 357.76953 L 78.703125,384 H 94.03125 l 1.914062,-6.70313 24.124998,14.48047 c 0.39453,13.11719 10.91406,23.67188 24.01953,24.13282 0.46094,13.05078 10.94922,23.53906 24,24 0.46094,13.05078 10.94922,23.53906 24,24 C 192.56641,477.26562 203.50391,488 216.96875,488 c 5,0 9.90234,-1.55859 14.02344,-4.33594 l 7.08593,6.25781 C 242.51953,493.83203 248.23828,496 254.17578,496 h 1.48047 c 13.3125,0 24.14453,-10.76172 24.3125,-24.03125 13.16797,-0.16797 23.83203,-10.83203 24,-24 13.17578,-0.16797 23.84766,-10.84766 24,-24.02344 C 341.26562,423.63281 352,412.76953 352,399.39844 352,398.59375 351.96094,397.80078 351.87891,397 L 496,324.94531 Z m -480,0 h 5.832031 L 79.367188,241.55859 50.335938,357.67969 16,346.23047 Z M 81.296875,368 65.550781,362.75391 93.753906,249.95312 112,260.59375 v 2.28516 L 81.96875,368 Z M 136,391.03125 c 0,-2.35938 0.95312,-4.67188 2.625,-6.34375 l 14.0625,-14.0625 c 1.67187,-1.67188 3.98437,-2.625 6.34375,-2.625 4.94531,0 8.96875,4.02344 8.96875,8.96875 0,2.35937 -0.95313,4.67187 -2.625,6.34375 L 151.3125,397.375 C 149.64063,399.04687 147.32812,400 144.96875,400 140.02344,400 136,395.97656 136,391.03125 Z m 24,24 c 0,-2.35937 0.95312,-4.67188 2.625,-6.34375 l 14.0625,-14.0625 c 1.67187,-1.67188 3.98437,-2.625 6.34375,-2.625 4.94531,0 8.96875,4.02344 8.96875,8.96875 0,2.35937 -0.95313,4.67187 -2.625,6.34375 L 175.3125,421.375 C 173.64062,423.04688 171.32812,424 168.96875,424 164.02344,424 160,419.97656 160,415.03125 Z m 24,24 c 0,-2.35938 0.95313,-4.67187 2.625,-6.34375 l 14.0625,-14.0625 c 1.67188,-1.67188 3.98437,-2.625 6.34375,-2.625 4.94531,0 8.96875,4.02344 8.96875,8.96875 0,2.35937 -0.95312,4.67187 -2.625,6.34375 L 199.3125,445.375 C 197.64062,447.04688 195.32812,448 192.96875,448 188.02344,448 184,443.97656 184,439.03125 Z M 216.96875,472 C 212.02344,472 208,467.97656 208,463.03125 c 0,-2.35938 0.95313,-4.67188 2.625,-6.34375 l 14.0625,-14.0625 c 1.67187,-1.67187 3.98438,-2.625 6.34375,-2.625 4.94531,0 8.96875,4.02344 8.96875,8.96875 0,2.35938 -0.95313,4.67188 -2.625,6.34375 l -14.0625,14.0625 c -1.67187,1.67187 -3.98438,2.625 -6.34375,2.625 z m 38.6875,8 h -1.48047 c -2.03906,0 -3.99219,-0.74219 -5.51172,-2.08984 l -5.98437,-5.27735 6.00781,-6.00781 c 2.14453,-2.14453 3.80859,-4.69531 5.03906,-7.43359 L 261,465.24609 c 1.90234,1.58594 3,3.92188 3,6.41016 0,4.60156 -3.74219,8.34375 -8.34375,8.34375 z m 71.74219,-72 h -1.38282 c -2.00781,0 -3.96874,-0.71094 -5.5039,-2 l -43.38281,-36.15234 -10.25,12.29687 42.1289,35.10156 C 310.90234,418.83203 312,421.16797 312,423.65625 312,428.25781 308.25781,432 303.65625,432 h -1.74609 c -1.94141,0 -3.83985,-0.6875 -5.33594,-1.9375 l -43.45313,-36.20703 -10.25,12.29687 L 285,441.25781 c 1.90234,1.57422 3,3.91016 3,6.39844 0,4.60156 -3.74219,8.34375 -8.34375,8.34375 -3.07031,0 -6.0625,-1.08984 -8.41797,-3.04688 l -17.85547,-14.88281 c -3.93359,-8.03906 -12.01562,-13.64453 -21.48047,-13.98047 -0.46093,-13.05078 -10.94921,-23.53906 -24,-24 -0.46093,-13.05078 -10.94921,-23.53906 -24,-24 C 183.43359,362.73437 172.49609,352 159.03125,352 c -6.57422,0 -13.00781,2.66406 -17.65625,7.3125 l -14.0625,14.0625 c -0.83984,0.83984 -1.53516,1.79297 -2.24219,2.73828 l -24.57422,-14.74609 21.54297,-75.39844 54.00782,-12.00781 c 14.16796,-3.16797 29.10546,-2.48047 42.92187,1.9414 l 11.78516,3.76953 -39.95313,19.97657 C 181.67188,304.22266 176,313.40625 176,323.61719 v 1.58203 C 176,339.97656 188.02344,352 202.80078,352 c 4.85547,0 9.63281,-1.32031 13.78516,-3.82422 L 246.375,330.3125 c 5.98438,-3.58594 14.01562,-2.80078 19.18359,1.84766 l 67.59375,60.83203 C 334.96094,394.63281 336,396.96094 336,399.39844 336,404.14453 332.14453,408 327.39844,408 Z M 480,315.05469 345.22266,382.44922 c -0.4375,-0.46485 -0.89453,-0.90625 -1.375,-1.33594 L 276.26562,320.28125 C 270.34375,314.9375 262.6875,312 254.71094,312 c -5.83203,0 -11.5586,1.58594 -16.57422,4.59375 l -29.80078,17.87109 C 206.66406,335.47266 204.75391,336 202.80078,336 196.83984,336 192,331.16016 192,325.19922 v -1.58203 c 0,-4.1211 2.28906,-7.81641 5.96875,-9.65625 l 44.625,-22.3125 c 7.63672,-3.82422 16.70312,-4.67969 24.93359,-2.3125 L 317.80078,303.69531 329.97656,304 480,225.03906 Z"
     id="path8"
     sodipodi:nodetypes="ccccccssccssccccccccccssccssccccccccccccccccccccssccsscccccccccssccsscccccccccccccsccsscccsccccccccccccccccssssssssssssssssssssssssssssssssssssssccsccssssccccsssccccsscccccssscccccccsssccccssccccsscsssscccccc" />
</svg>
